packages/assets/static/images/icons/globe.svg

<svg width="24" height="24" viewBox="0 0 24 24" xmlns="http://www.w3.org/2000/svg">
<path d="M11.6746 2.1499C9.67203 2.1499 7.71446 2.74372 6.04942 3.85627C4.38437 4.96882 3.08662 6.55013 2.32028 8.40023C1.55395 10.2503 1.35344 12.2861 1.74411 14.2502C2.13479 16.2142 3.0991 18.0184 4.51511 19.4344C5.93112 20.8504 7.73522 21.8147 9.69928 22.2054C11.6633 22.596 13.6991 22.3955 15.5492 21.6292C17.3993 20.8628 18.9806 19.5651 20.0932 17.9001C21.2057 16.235 21.7996 14.2774 21.7996 12.2749C21.7966 9.5905 20.7289 7.0169 18.8307 5.11874C16.9326 3.22057 14.359 2.15288 11.6746 2.1499ZM11.6746 19.6812C10.8456 18.711 10.1981 17.5995 9.763 16.3999H13.5899C13.3423 17.0783 13.0282 17.7305 12.6524 18.3471C12.3632 18.8176 12.0361 19.2637 11.6746 19.6812ZM9.19113 14.1499C9.0055 12.9068 9.0055 11.643 9.19113 10.3999H14.1599C14.3455 11.643 14.3455 12.9068 14.1599 14.1499H9.19113ZM3.79957 12.2749C3.79954 11.643 3.87603 11.0134 4.02738 10.3999H6.91675C6.76051 11.645 6.76051 12.9048 6.91675 14.1499H4.02738C3.87603 13.5364 3.79954 12.9068 3.79957 12.2749ZM11.6746 4.86865C12.5035 5.83882 13.151 6.95029 13.5861 8.1499H9.76113C10.0087 7.47155 10.3228 6.81932 10.6986 6.20271C10.9872 5.73231 11.3136 5.28616 11.6746 4.86865ZM16.4305 10.3999H19.3199C19.6236 11.6314 19.6236 12.9184 19.3199 14.1499H16.4324C16.5886 12.9048 16.5886 11.645 16.4324 10.3999H16.4305ZM18.3777 8.1499H15.9599C15.6221 7.01588 15.1333 5.93243 14.5068 4.92865C16.1138 5.55249 17.4734 6.68342 18.3796 8.1499H18.3777ZM8.84238 4.92865C8.21583 5.93243 7.72708 7.01588 7.38925 8.1499H4.96957C5.87569 6.68342 7.23538 5.55249 8.84238 4.92865ZM4.96957 16.3999H7.38925C7.72708 17.5339 8.21583 18.6174 8.84238 19.6212C7.23538 18.9973 5.87569 17.8664 4.96957 16.3999ZM14.5068 19.6212C15.1333 18.6174 15.6221 17.5339 15.9599 16.3999H18.3796C17.4734 17.8664 16.1138 18.9973 14.5068 19.6212Z"/>
</svg>

<svg viewBox="0 0 24 24" xmlns="http://www.w3.org/2000/svg" aria-hidden="true" fill="currentColor" height="24px" width="24px"><path d="M11.675 2.15A10.125 10.125 0 1 0 21.8 12.275 10.136 10.136 0 0 0 11.675 2.15m0 17.531A10.6 10.6 0 0 1 9.763 16.4h3.827c-.248.678-.562 1.33-.938 1.947q-.434.707-.977 1.334M9.19 14.15a12.7 12.7 0 0 1 0-3.75h4.969a12.7 12.7 0 0 1 0 3.75zM3.8 12.275c0-.632.076-1.262.227-1.875h2.89a15 15 0 0 0 0 3.75h-2.89a7.8 7.8 0 0 1-.227-1.875m7.875-7.406c.829.97 1.476 2.081 1.911 3.28H9.761c.248-.677.562-1.33.938-1.946q.433-.707.976-1.334m4.755 5.53h2.89a7.8 7.8 0 0 1 0 3.75h-2.888a15 15 0 0 0 0-3.75zm1.948-2.25H15.96a13.2 13.2 0 0 0-1.453-3.22 7.92 7.92 0 0 1 3.873 3.22zM8.842 4.93a13.2 13.2 0 0 0-1.453 3.22H4.97a7.92 7.92 0 0 1 3.873-3.22M4.97 16.399h2.42a13.2 13.2 0 0 0 1.452 3.222A7.92 7.92 0 0 1 4.97 16.4m9.537 3.222A13.2 13.2 0 0 0 15.96 16.4h2.42a7.92 7.92 0 0 1-3.873 3.221"/></svg>
